X:303
T:The Star of Munster
R:Reel
O:Ireland
B:Roche 1 n136
B:O'Neill's 1218
B:Pubscouts
B:Fiddler's Fakebook
S:My arrangement from various sources
Z:Transcription, arrangement, chords:Mike Long
M:C|
L:1/8
K:G
ed|\
"Am"c2Ac "G"B2GB|"Am"AGEF "G"GED2|"Am"EAAB cBcd|"Am"eaaf "G"gedB|\
"Am"~c2Ac "G"~B2GB|"Am"AGEF "G"GED2|
"Am"EAAB cBcd|"G"eddB "Am"A2:|zd|:"Am"eaab ageg|\
agbg agef|"G"{a}g2ga gfef|
"(Em)"geaf "G"ged2|"Am"eaab ageg|agbg agef|\
"G"~g2ge ~a2af|"(Em)"bgaf gfed:|
